X: 270
T:Cainc y Datgeinaid
T:The Singing Tune
M:C|
L:1/8
O:Welsh
N:My wife got this tune from a member of the Seattle Welsh Choir
Z:Kevin Gow
K:D
AGFE|:D2DFA2d2|c2A2B2c2|d2dfa2d2|c2cea2ag|f2afd2fd|!
BABcd2B2|A2Ad cdec|1d4AGFE:|2d4d2dc|||:B2Bcd2cB|cBcde2dc|!
B2BA Bcde|f3g fedc|B2Bcd2cB|cBcde2f2|fedc edcB|!
A3B AGFE|D2DFA2d2|c2A2B2c2|d2dfa2d2|c2cea2ag|!
f2afd2fd|BABcd2B2|A2Ad cdec|1d4d2dc:|2d4||!
<end>
<start>
